X: 20703
T: Johnny An Gabha
R: polka
M: 2/4
K: Dmajor
|:A|D2 FA|BA FA|Be B>c|BA FA|
D2 FD/F/|BA FA|Be Bc|ed d:|
|:F/A/|d2 c2|BA FA|Be B>c|BA FA|
[1 de/d/ c2|BA FA|Be B>c|ed d:|
[2 DC/D/ FD/F/|B>A FG/A/|B/c/e B>c|ed d||

